svgs/regular/gauge-low.svg

<svg xmlns="http://www.w3.org/2000/svg" viewBox="0 0 576 512"><!-- Font Awesome Pro 6.0.0-alpha2 by @fontawesome - https://fontawesome.com License - https://fontawesome.com/license (Commercial License) --><path d="M288 128C270.375 128 256 142.375 256 160S270.375 192 288 192S320 177.625 320 160S305.625 128 288 128ZM96 320C96 337.625 110.375 352 128 352S160 337.625 160 320S145.625 288 128 288S96 302.375 96 320ZM288 32C129 32 0 161 0 320C0 372.75 14.25 422.25 39 464.75C44.625 474.375 55.375 480 66.5 480H509.5C520.625 480 531.375 474.375 537 464.75C561.75 422.25 576 372.75 576 320C576 161 447 32 288 32ZM288 432C265.945 432 248 414.057 248 392S265.945 352 288 352C310.057 352 328 369.943 328 392S310.057 432 288 432ZM500.25 432H365.965C372.166 419.949 376 406.486 376 392C376 343.398 336.602 304 288 304C280.51 304 273.357 305.221 266.414 306.982L188.094 186.891C180.875 175.781 166.031 172.687 154.875 179.891C143.781 187.141 140.656 202.016 147.906 213.109L224.779 330.98C209.5 346.809 200 368.262 200 392C200 406.486 203.834 419.949 210.035 432H75.75C57.5 397.625 48 359.125 48 320C48 187.625 155.625 80 288 80S528 187.625 528 320C528 359.125 518.5 397.625 500.25 432ZM432 208C432 190.375 417.625 176 400 176S368 190.375 368 208S382.375 240 400 240S432 225.625 432 208ZM416.246 320C416.246 337.625 430.621 352 448.246 352S480.246 337.625 480.246 320S465.871 288 448.246 288S416.246 302.375 416.246 320Z"/></svg>

<svg xmlns="http://www.w3.org/2000/svg" viewBox="0 0 576 512"><!--! Font Awesome Pro 6.0.0-alpha3 by @fontawesome - https://fontawesome.com License - https://fontawesome.com/license (Commercial License) --><path d="M288 128C270.4 128 256 142.4 256 160s14.38 32 32 32s32-14.38 32-32S305.6 128 288 128zM96 320c0 17.62 14.38 32 32 32S160 337.6 160 320S145.6 288 128 288S96 302.4 96 320zM288 32c-159 0-288 129-288 288c0 52.75 14.25 102.3 39 144.8c5.625 9.625 16.38 15.25 27.5 15.25h443c11.12 0 21.88-5.625 27.5-15.25C561.8 422.3 576 372.8 576 320C576 161 447 32 288 32zM288 432c-22.05 0-40-17.94-40-40S265.9 352 288 352c22.06 0 40 17.94 40 40S310.1 432 288 432zM500.3 432h-134.3C372.2 419.9 376 406.5 376 392c0-48.6-39.4-88-88-88c-7.49 0-14.64 1.221-21.59 2.982L188.1 186.9c-7.219-11.11-22.06-14.2-33.22-7C143.8 187.1 140.7 202 147.9 213.1l76.87 117.9C209.5 346.8 200 368.3 200 392c0 14.49 3.834 27.95 10.04 40H75.75C57.5 397.6 48 359.1 48 320c0-132.4 107.6-240 240-240s240 107.6 240 240C528 359.1 518.5 397.6 500.3 432zM432 208c0-17.62-14.38-32-32-32s-32 14.38-32 32s14.38 32 32 32S432 225.6 432 208zM416.2 320c0 17.62 14.21 32 31.84 32s32-14.38 32-32S465.9 288 448.2 288S416.2 302.4 416.2 320z"/></svg>
